Hatter-kde-dark/actions/24/color-picker.svg

<svg xmlns="http://www.w3.org/2000/svg" viewBox="0 0 24 24">
  <defs id="defs3051">
    <style type="text/css" id="current-color-scheme">
      .ColorScheme-Text {
        color:#dedede;
      }
      </style>
  </defs>
 <path style="fill:currentColor;fill-opacity:1;stroke:none" 
     d="M 12 4 C 11.027093 7.405034 8.6455541 10.332277 7.5957031 12.675781 C 7.2282991 13.372552 7 14.15458 7 15 C 7 17.770002 9.229998 20 12 20 C 14.770002 20 17 17.770002 17 15 C 17 14.15458 16.771701 13.372552 16.404297 12.675781 C 15.354447 10.332277 12.972897 7.405034 12 4 z M 14.283203 11.716797 C 15.3209 12.438005 16 13.635082 16 15 C 16 17.216002 14.216002 19 12 19 C 10.635043 19 9.4379979 18.320951 8.7167969 17.283203 C 9.3638449 17.732907 10.148916 18 11 18 C 13.216002 18 15 16.216002 15 14 C 15 13.148916 14.732907 12.363845 14.283203 11.716797 z "
     class="ColorScheme-Text"
     />
</svg>

<?xml version="1.0" encoding="UTF-8"?>
<svg viewBox="0 0 24 24" xmlns="http://www.w3.org/2000/svg">
 <defs id="defs3051">
  <style id="current-color-scheme" type="text/css">.ColorScheme-Text {
        color:#dedede;
      }</style>
 </defs>
 <path class="ColorScheme-Text" d="m12 4c-0.97291 3.405-3.3544 6.3323-4.4043 8.6758-0.3674 0.69677-0.5957 1.4788-0.5957 2.3242 0 2.77 2.23 5 5 5s5-2.23 5-5c0-0.84542-0.2283-1.6274-0.5957-2.3242-1.0498-2.3435-3.4314-5.2707-4.4043-8.6758zm2.2832 7.7168c1.0377 0.72121 1.7168 1.9183 1.7168 3.2832 0 2.216-1.784 4-4 4-1.365 0-2.562-0.67905-3.2832-1.7168 0.64705 0.4497 1.4321 0.7168 2.2832 0.7168 2.216 0 4-1.784 4-4 0-0.85108-0.26709-1.6362-0.7168-2.2832z" fill="currentColor"/>
</svg>
